client/src/assets/logo.svg

<svg width="500" height="500" fill="currentColor" viewBox="0 0 500 500">
  <path fill-rule="evenodd" d="M250 480c127.025 0 230-102.975 230-230S377.025 20 250 20 20 122.975 20 250s102.975 230 230 230zm0 20c138.071 0 250-111.929 250-250S388.071 0 250 0 0 111.929 0 250s111.929 250 250 250z" clip-rule="evenodd"/>
  <path d="M312.564 234.359a39.014 39.014 0 00-3.224 15.56 39.013 39.013 0 002.843 14.651L211.69 340.121c-6.973-4.893-15.538-7.775-24.796-7.775-23.421 0-42.408 18.452-42.408 41.213 0 22.762 18.987 41.214 42.408 41.214 23.422 0 42.409-18.452 42.409-41.214 0-5.179-.983-10.134-2.778-14.701l100.765-75.755c6.912 4.681 15.35 7.432 24.458 7.432 23.422 0 42.408-18.185 42.408-40.616 0-22.432-18.986-40.616-42.408-40.616-8.74 0-16.863 2.532-23.612 6.872l-101.611-76.391a40.078 40.078 0 002.778-14.7c0-22.762-18.987-41.214-42.409-41.214-23.421 0-42.408 18.452-42.408 41.214 0 22.761 18.987 41.213 42.408 41.213 9.258 0 17.823-2.883 24.796-7.775l100.874 75.837z"/>
</svg>

<svg width="500" height="500" viewBox="0 0 500 500" fill="none" xmlns="http://www.w3.org/2000/svg">
<path d="M490 250C490 382.548 382.548 490 250 490C117.452 490 10 382.548 10 250C10 117.452 117.452 10 250 10C382.548 10 490 117.452 490 250Z" stroke="white" stroke-width="20"/>
<path d="M312.564 234.359C310.487 239.151 309.34 244.407 309.34 249.919C309.34 255.084 310.347 260.025 312.183 264.57L211.69 340.121C204.717 335.229 196.152 332.346 186.894 332.346C163.473 332.346 144.486 350.798 144.486 373.559C144.486 396.321 163.473 414.773 186.894 414.773C210.316 414.773 229.302 396.321 229.302 373.559C229.302 368.38 228.32 363.425 226.525 358.858L327.29 283.103C334.201 287.784 342.64 290.535 351.748 290.535C375.17 290.535 394.156 272.35 394.156 249.919C394.156 227.487 375.17 209.303 351.748 209.303C343.008 209.303 334.885 211.835 328.136 216.175L226.525 139.784C228.32 135.218 229.302 130.263 229.302 125.084C229.302 102.322 210.316 83.8701 186.894 83.8701C163.473 83.8701 144.486 102.322 144.486 125.084C144.486 147.845 163.473 166.297 186.894 166.297C196.152 166.297 204.717 163.414 211.69 158.522L312.564 234.359Z" fill="white"/>
</svg>
